X:1
T:Hau, hau hau le boys!
T:Claudin de Sermisy
T:Hau, hau hau le boys!
C:Claudin de Sermisy
%%score [ 1 2 3 4 ]
L:1/8
Q:1/4=200
M:4/2
K:C
V:1 treble nm="Soprano" snm="S"
V:2 treble nm="Alto" snm="A"
V:3 treble-8 nm="Tenor" snm="T"
V:4 bass nm="Bass" snm="B"
V:1
 z8 c8 | G8 A4 B4 | c8 e8 | e4 d4 c6 BA | G8 z8 | c8 G4 A4- | A2 B2 c8 B4 | c16 | c8 B4 A4 | %9
w: Hau,|hau, hau le|boys! hau,|hau le boys! _ _|_|hau, hau, hau|_ _ _ le|boys!|Pri- ons à|
 G2 A2 B2 G2 A4 c4 | c4 B4 c8 | z16 | z16 | c8 B4 A4- | A2 G2 G8 ^F4 | G4 c6 d2 e4- | e2 d2 c8 B4 | %17
w: Dieu, _ _ _ _ le|roy des roys,|||Gar- der ce|_ _ gen- til|vin fran- * *||
 c8 d8 | d4 f4 e4 d4 | c4 B4 A8 | B4 G4 A4 B4 | c8 z4 c4- | c4 G4 A4 B4 | c8 c8 | %24
w: çoys. Si|en beu- vrons six|potz pour trois.|Hau, hau, hau le|boys! Hau,|_ hau, hau le|boys! Si|
 B4 A4 G2 F2 G2 A2 | B4 c4 c4 B4 | c8 z8 | z16 | z4 c4 B4 A4 | G8 A4 c4- | c4 B4 c8 | z4 d4 d4 c4 | %32
w: en beu- vrons _ _ _|_ six potz pour|trois.||Pour mieulx nous|e- sclar- cir|_ les voix.|Beu- vons d'au-|
 d8 z8 | z8 z4 c4- | c4 G4 A4 B4 | c6 B2 G4 B4 | c4 e6 d2 d4- | d2 c2 c8 B4 | c8 e8 | e4 d4 c6 BA | %40
w: tant,|Hau,|_ hau, hau le|boys! _ _ Hau,|hau, hau _ _|_ _ _ le|boys! Hau,|hau le boys! _ _|
 G8 z8 | c8 G4 A4- | A2 B2 c8 B4 | c16 |] %44
w: _|Hau, hau, hau|_ _ _ le|boys!|
V:2
 z8 E8 | E8 C4 D4 | E4 C8 G,4 | A,4 B,4 C6 D2 | E8 G8 | F4 E8 C4- | C2 D2 E2 F2 G4 G4 | E8 G8 | %8
w: Hau,|hau, hau le|boys! Hau, hau,|hau le boys! _|_ hau,|hau, _ hau|_ _ _ _ _ le|boys! Pri-|
 F4 E4 D4 D4 | E2 F2 G2 E2 F4 E4 | D6 CB, A,2 G,2 G4- | G4 ^F4 G8 | z8 z4 F4- | F4 E4 D4 C4 | %14
w: ons à Dieu, le|roy _ _ _ _ _|_ _ _ _ _ _|* des roys,|Gar-|* der ce gen-|
 E8 D4 D4 | B,4 E4 F4 G4- | G2 E2 F4 G8 | E8 z4 G4 | D4 D4 G4 B4 | A4 G8 F4 | G8 z8 | z8 z4 E4- | %22
w: til vin fran-|||çoys. Si|en beu- vrons six|potz pour _|trois.|Hau,|
 E4 E4 F4 D4 | E4 G4 F4 E4 | D4 D4 E6 F2 | G4 C4 D8 | z16 | z16 | z4 G4 F4 F4 | E8 F4 G4- | %30
w: _ hau, hau le|boys! Si en beu-|vrons six potz _|_ pour trois.|||Pour mieulx nous|e- sclar- cir|
 G4 G4 E8 | z4 D4 F4 E4 | D8 z8 | z4 F8 C4 | E8 E4 D4 | z8 G8 | F4 E8 A4- | A4 F4 G8 | E4 C8 G,4 | %39
w: _ les voix.|Beu- vons d'au-|tant,|Hau, hau,|hau le boys!|Hau,|hau, hau _|_ le boys!|_ _ Hau,|
 A,4 B,4 C6 D2 | E8 G8 | F4 E8 C4- | C2 D2 E2 F2 G4 G4 | E16 |] %44
w: hau, hau le _|boys! Hau,|hau, hau, hau|_ _ _ _ _ le|boys!|
V:3
 z8 c8 | B8 A4 F4 | G8 z4 c4- | c4 G4 A6 B2 | c2 d2 e8 d4 | c6 d2 e4 f4- | f2 e2 c4 d8 | c16 | %8
w: Hau,|hau, hau le|boys! hau,|_ hau, hau _|_ _ _ _||* * * le|boys!|
 z16 | z16 | z8 c8 | B4 A4 G2 A2 B2 G2 | A4 c4 c4 B4 | c8 z8 | z4 c4 B4 A4 | G4 G4 A4 B4 | c8 d8 | %17
w: ||Pri-|ons à Dieu, _ _ _|_ le roy des|roys,|Gar- der ce|gen- til vin _|fran- *|
 c6 B2 G8 | z16 | z4 d4 d4 f4 | e4 d4 c4 B4 | A8 z4 G4- | G4 c8 B4 | G8 A8 | z8 c8 | B4 A4 G4 G4 | %26
w: çoys. _ _||Si en beu-|vrons six potz pour|trois. Hau,|_ hau, hau|le boys!|Si|en beu- vrons six|
 A6 B2 c4 d4- | d2 c2 c8 B4 | c4 e4 d4 d4 | B4 c8 e4 | d8 c6 B2 | G8 z8 | z4 d4 c4 B4 | A16 | %34
w: potz _ _ _|_ _ _ pour|trois. Pour mieulx nous|e- sclar- cir|les _ _|voix.|ie my en|vois.|
 z4 c8 G4 | A6 B2 c4 d4 | c6 d2 e4 f4- | f2 e2 c4 d8 | c8 z4 c4- | c4 G4 A6 B2 | c2 d2 e8 d4 | %41
w: Hau, hau,|hau _ _ _|_ _ _ _|* * * le|boys! Hau,|_ hau, hau _|_ _ _ _|
 c6 d2 e4 f4- | f2 e2 c4 d8 | c16 |] %44
w: |* * * le|boys!|
V:4
 z8 C,8 | E,8 F,4 D,4 | C,16 | z16 | z4 C8 G,4 | A,6 B,2 C4 F,4 | A,8 G,8 | C,16 | z16 | z16 | %10
w: Hau,|hau, hau le|boys!||hau, hau|le _ boys! et|hau le|boys!|||
 G,8 F,4 E,4 | D,4 D,4 E,2 F,2 G,2 E,2 | F,4 E,4 D,8 | C,8 z4 z4 | z4 C,4 D,4 D,4 | %15
w: Pri- ons à|Dieu, le roy _ _ _|_ _ des|roys,|Gar- der ce|
 E,4 C,4 F,4 E,4 | A,8 G,8 | C,8 z8 | z16 | z4 G,4 D,4 D,4 | G,4 B,4 A,4 G,4- | G,4 F,4 G,4 C,4- | %22
w: gen- til vin _|fran- *|çoys.||Si en beu-|vrons six potz pour|_ _ trois. Hau,|
 C,4 C,4 F,4 G,4 | C,8 z8 | z16 | z8 z4 G,4- | G,4 F,4 E,4 D,4 | F,4 E,4 D,8 | C,4 C,4 D,4 D,4 | %29
w: _ hau, hau le|boys!||Si|_ en beu- vrons|six potz pour|trois. Pour mieulx nous|
 E,4 C,4 F,4 C,4 | G,8 C,8 | z16 | z4 D,4 F,4 G,4 | D,8 z8 | z16 | z4 C8 G,4 | A,6 B,2 C4 F,4 | %37
w: e- sclar- cir _|les voix.||ie my en|vois.||Hau, hau,|hau le boys! et|
 A,8 G,8 | C,16 | z16 | z4 C8 G,4 | A,6 B,2 C4 F,4 | A,8 G,8 | C,16 |] %44
w: hau le|boys!||Hau, hau,|hau le boys! et|hau le|_|

